X: 22
T: Farewell to Gibraltar
P: piffero primo a0011
O: cfd bk 1
%R: march
F: http://ancients.sudburymuster.org/mus/ssp/pdf/closingF.pdf
Z: 2019 John Chambers <jc:trillian.mit.edu>
M: 2/4
L: 1/16
K: A
cd |\
e3f e2c2 | A3B A2ae | f2ec efae | c2B2 B2cd |\
e3f e2c2 | A3B A2ae | f2ec efae | c2A2 A2  :: ag |
f2ec efae | faec B2ae | f2ec efae | f2B2 B2ag |\
f2ec efae | faec B2ae | f2ec efae | c2A2 A2 :|
|: cB |\
A3c e2a2 | f2ec B2cB | ABcd efec | f2B2 B2cB |\
A3c e2a2 | f2ec B2cB | ABcd efed | c2A2 A2 :: cd |
e3f  e2c2 | e3f  e2ag | f3g  f2e2 | f3g  f2ag |\
f2ed c2BA | BABc e2ag | f2ec efae | c2A2 A2  :|


